src/actions/symbolic/shapebuilder-tool-union-symbolic.svg

<svg width="16" height="16" version="1.1" viewBox="0 0 16 16" xmlns="http://www.w3.org/2000/svg">
 <g fill="#363636">
  <path d="m5.5 1a4.5 4.5 0 0 0-4.5 4.5 4.5 4.5 0 0 0 4.5 4.5 4.5 4.5 0 0 0 4.5-4.5 4.5 4.5 0 0 0-4.5-4.5zm0 1a3.5 3.5 0 0 1 3.5 3.5 3.5 3.5 0 0 1-3.5 3.5 3.5 3.5 0 0 1-3.5-3.5 3.5 3.5 0 0 1 3.5-3.5zm-0.5 1v2h-2v1h2v2h1v-2h2v-1h-2v-2h-1z" opacity=".45"/>
  <path d="m10.963 6a5.5 5.5 0 0 1-4.9629 4.9629v4.0371h9v-9z" fill-rule="evenodd" stroke-linecap="round" stroke-linejoin="round" stroke-width="2" style="paint-order:stroke fill markers"/>
 </g>
</svg>

<svg xmlns="http://www.w3.org/2000/svg" width="16" height="16">
    <g fill="#050505" opacity=".7">
        <path d="M5.5 1A4.5 4.5 0 0 0 1 5.5 4.5 4.5 0 0 0 5.5 10 4.5 4.5 0 0 0 10 5.5 4.5 4.5 0 0 0 5.5 1zm0 1A3.5 3.5 0 0 1 9 5.5 3.5 3.5 0 0 1 5.5 9 3.5 3.5 0 0 1 2 5.5 3.5 3.5 0 0 1 5.5 2zM5 3v2H3v1h2v2h1V6h2V5H6V3H5z" opacity=".45"/>
        <path fill-rule="evenodd" d="M10.963 6A5.5 5.5 0 0 1 6 10.963V15h9V6z" style="paint-order:stroke fill markers"/>
    </g>
</svg>
